X: 1
T: Joan's
M: 6/8
L: 1/8
R: jig
K: Gmaj
|:D|.G2 G AFD|.B2B cAF|d2B c2A|GBG AFD|
.G2 G AFD|.B2B cAF|d2B cAF|GBA G2:|
|:B/c/|.d2d dBG|.c2c cAF|d2B cAF|GBG AFD|
.G2 G AFD|.B2B cAF|d2B cAF|GBA G2:|
